frontend/public/svg/interface/globe.svg

<svg width="186" height="171" viewBox="0 0 186 171" fill="none" xmlns="http://www.w3.org/2000/svg">
<g clip-path="url(#clip0)">
<path d="M185.696 74.2188C185.375 55.2226 177.659 39.0104 162.744 26.0344C150.784 15.6176 136.097 8.031 119.101 3.47659C112.524 1.71949 105.574 0.214102 98.304 0.214102C94.48 0.202117 90.6677 0.649697 86.9515 1.5472C69.8893 5.72476 57.3763 10.5515 46.3905 17.2153C29.9619 27.1811 19.5299 37.0811 12.5661 49.3214C3.15379 65.8443 -0.273628 82.8985 2.08723 101.46C3.48155 112.387 7.49047 123.169 14.7074 135.389C20.397 145.017 27.6938 151.926 37.0191 156.501C41.9213 158.915 46.7436 161.249 51.7399 163.377C64.9664 169.013 78.5337 171.294 95.7361 170.77C96.8097 170.624 98.1235 170.465 99.6178 170.286C103.607 169.808 109.07 169.159 114.385 168.197C129.24 165.519 141.406 160.977 151.58 154.313C154.977 152.128 158.079 149.521 160.811 146.555C165.872 140.901 170.191 134.631 173.664 127.896C182.094 111.788 186.029 94.2303 185.696 74.2188ZM32.3362 36.3977C45.1629 24.7542 59.0906 16.6586 74.9116 11.6525L77.6534 10.7838L75.5724 12.7596C65.8472 22.0291 59.5436 33.5797 55.1348 42.604L54.9551 42.9822L54.5279 42.9758C49.0915 42.9229 37.1392 39.939 32.4765 37.4721L31.6431 37.0282L32.3362 36.3977ZM8.65123 84.6646C10.1916 69.2088 15.9076 55.4904 26.1268 42.7332L26.4065 42.3878L51.8866 49.9138L51.6399 50.5772C47.5822 61.4626 44.7175 72.7514 43.0956 84.2471L43.0151 84.8111L8.57717 85.4073L8.65123 84.6646ZM21.0909 133.281L20.7839 132.81C12.2726 119.595 8.21035 106.155 8.37068 91.7266L8.37717 91.0704H41.6345L42.4016 124.217L21.0909 133.281ZM50.7396 155.401C41.3409 151.264 31.623 146.987 24.6449 138.321L24.1516 137.71L24.8384 137.333C31.0752 133.838 37.5118 131.803 42.9813 130.271L43.7083 130.072L43.8219 130.808C45.4161 140.714 48.1438 148.339 52.3995 154.797L53.6399 156.674L50.7396 155.401ZM85.724 163.403L85.1307 163.449C84.0272 163.542 82.936 163.589 81.8552 163.589C77.3821 163.497 72.9304 162.936 68.5748 161.917C67.7719 161.671 67.0929 161.131 66.6742 160.406L65.7135 158.848C63.182 154.73 60.6309 152.583 58.1097 146.216C55.5976 139.871 53.5809 133.816 52.9272 128.261L52.8622 127.67L53.4426 127.541C64.2581 125.066 75.2738 123.552 86.3595 123.019L87.0865 122.979L85.724 163.403ZM87.3916 116.371L52.0468 121.437L51.9535 120.781C50.4923 110.61 50.7201 100.252 51.1329 91.4601L51.1596 90.8303H88.4522L87.3916 116.371ZM88.6587 84.0335H52.093L52.158 83.3108C53.0986 73.2857 55.5133 62.9085 59.5353 51.5837L59.7086 51.0991L88.6593 53.4003L88.6587 84.0335ZM88.8722 46.617L62.2921 45.0038L62.6725 44.1352C69.6089 28.1967 78.4201 16.8101 90.4133 8.32202L91.5667 7.50645L88.8722 46.617ZM120.322 12.9468C131.187 16.1422 145.148 21.182 156.807 31.9182L157.508 32.5635L155.787 33.4384C150.277 36.2435 145.077 38.8891 138.792 39.8706L138.351 39.9436L138.118 39.5564C137.197 38.0574 136.3 36.539 135.403 35.0206C130.994 27.6076 126.438 19.9359 119.695 14.0812L117.393 12.0854L120.322 12.9468ZM97.6899 14.3193C97.7704 12.668 97.8503 11.0039 97.9236 9.33976L97.9703 8.37829L98.8577 8.75578C112.017 14.3852 121.416 24.3316 129.333 41.0076L129.7 41.7819L126.599 42.3588C116.814 44.196 107.569 45.9331 97.7126 46.2512L97.0389 46.2712L97.0259 45.6013C96.7169 35.1026 97.1901 25.0065 97.6906 14.318L97.6899 14.3193ZM96.911 53.6326L133.067 48.1818L133.267 48.6458C137.563 58.3005 139.591 69.1081 139.464 81.6841V82.3203L96.9084 83.9051L96.911 53.6326ZM96.504 90.5651L139.36 89.219L139.34 89.9288C139.046 99.4016 137.983 108.834 136.159 118.136L136.045 118.713L95.4842 115.821L96.504 90.5651ZM112.393 161.367C107.99 162.077 103.575 162.674 98.9057 163.303C97.3115 163.522 95.6906 163.741 94.0295 163.967L93.2356 164.079L95.0298 122.737L95.6439 122.717C106.917 122.292 118.536 123.162 133.31 125.528L134.117 125.658L133.83 126.414C133.53 127.209 133.23 127.999 132.937 128.788C130.34 135.717 127.172 141.844 123.905 148.195C120.314 155.177 113.594 161.174 112.391 161.366L112.393 161.367ZM161.278 133.565C154.748 146.097 143.489 151.673 132.303 155.837L130.455 156.527L131.502 154.862C136.398 147.119 139.593 138.677 142.975 129.739L143.869 127.373L161.645 132.862L161.278 133.565ZM177.159 88.5821C175.979 102.719 172.551 114.561 166.381 125.847L166.133 126.304L146.023 121.066L149.472 88.7944L177.219 87.8401L177.159 88.5821ZM177.513 80.307L177.439 80.871L149.419 81.8531L149.338 81.2556C149.098 79.4488 148.884 77.622 148.671 75.8513C148.205 71.8467 147.717 67.7156 146.884 63.7506C146.057 59.8453 144.89 56.0859 143.648 52.1071C143.122 50.3964 142.568 48.6329 142.054 46.8623L141.888 46.2925L162.585 37.7587L162.892 37.9838C172.282 44.9187 179.386 65.4952 177.512 80.3057L177.513 80.307Z" fill="black"/>
</g>
<defs>
<clipPath id="clip0">
<rect width="185" height="171" fill="white" transform="translate(0.777344)"/>
</clipPath>
</defs>
</svg>

<svg xmlns="http://www.w3.org/2000/svg" width="186" height="171" fill="none" viewBox="0 0 186 171"><g clip-path="url(#a)"><path fill="#000" d="M185.696 74.219c-.321-18.996-8.037-35.209-22.952-48.185-11.96-10.416-26.647-18.003-43.643-22.557C112.524 1.719 105.574.214 98.304.214a47.7 47.7 0 0 0-11.353 1.333c-17.062 4.178-29.575 9.005-40.56 15.668-16.43 9.966-26.861 19.866-33.825 32.106C3.154 65.844-.274 82.9 2.087 101.46c1.395 10.927 5.403 21.709 12.62 33.929 5.69 9.628 12.987 16.537 22.312 21.112 4.902 2.414 9.725 4.748 14.72 6.876 13.227 5.636 26.795 7.917 43.997 7.393 1.074-.146 2.388-.305 3.882-.484 3.989-.478 9.452-1.127 14.767-2.089 14.855-2.678 27.021-7.22 37.195-13.884a47.4 47.4 0 0 0 9.231-7.758 89.4 89.4 0 0 0 12.853-18.659c8.43-16.108 12.365-33.666 12.032-53.677M32.336 36.398c12.827-11.644 26.755-19.74 42.576-24.746l2.741-.868-2.08 1.976c-9.726 9.27-16.03 20.82-20.438 29.844l-.18.378-.427-.006c-5.436-.053-17.389-3.037-22.051-5.504l-.834-.444zM8.651 84.665c1.54-15.456 7.257-29.175 17.476-41.932l.28-.345 25.48 7.526-.247.663a160.7 160.7 0 0 0-8.544 33.67l-.08.564-34.439.596zm12.44 48.616-.307-.471C12.273 119.595 8.21 106.155 8.37 91.727l.006-.657h33.258l.767 33.147zm29.649 22.12c-9.4-4.137-19.117-8.414-26.095-17.08l-.493-.611.686-.377c6.237-3.495 12.674-5.53 18.143-7.062l.727-.199.114.736c1.594 9.906 4.322 17.531 8.578 23.989l1.24 1.877zm34.984 8.002-.593.046q-1.655.14-3.276.14a64 64 0 0 1-13.28-1.672 3.32 3.32 0 0 1-1.9-1.511l-.962-1.558c-2.531-4.118-5.082-6.265-7.603-12.632-2.512-6.345-4.53-12.4-5.183-17.955l-.065-.591.58-.129a188 188 0 0 1 32.918-4.522l.727-.04zm1.668-47.032-35.345 5.066-.093-.656c-1.462-10.171-1.234-20.529-.821-29.32l.027-.63h37.292zm1.267-32.337H52.093l.065-.723c.94-10.025 3.355-20.403 7.377-31.727l.174-.485 28.95 2.301zm.213-37.417-26.58-1.613.38-.869C69.61 28.197 78.42 16.81 90.414 8.322l1.154-.816zm31.45-33.67c10.865 3.195 24.826 8.235 36.485 18.971l.701.645-1.721.875c-5.51 2.805-10.71 5.451-16.995 6.433l-.441.073-.233-.388a307 307 0 0 1-2.715-4.535c-4.409-7.413-8.965-15.085-15.708-20.94l-2.302-1.996zM97.69 14.319c.08-1.651.16-3.315.234-4.98l.046-.96.888.377c13.159 5.63 22.558 15.576 30.475 32.252l.367.774-3.101.577c-9.785 1.837-19.03 3.574-28.886 3.892l-.674.02-.013-.67c-.31-10.498.164-20.594.665-31.283zm-.779 39.314 36.156-5.451.2.464c4.296 9.654 6.324 20.462 6.197 33.038v.636l-42.556 1.585zm-.407 36.932 42.856-1.346-.02.71a175 175 0 0 1-3.181 28.207l-.114.577-40.56-2.892zm15.889 70.802c-4.403.71-8.818 1.307-13.487 1.936-1.595.219-3.215.438-4.877.664l-.793.112 1.794-41.342.614-.02c11.273-.425 22.892.445 37.666 2.811l.807.13-.287.756q-.452 1.191-.893 2.374c-2.597 6.929-5.765 13.056-9.032 19.407-3.591 6.982-10.311 12.979-11.514 13.171zm48.885-27.802c-6.53 12.532-17.789 18.108-28.975 22.272l-1.848.69 1.047-1.665c4.896-7.743 8.091-16.185 11.473-25.123l.894-2.366 17.776 5.489zm15.881-44.983c-1.18 14.137-4.608 25.979-10.778 37.265l-.248.457-20.11-5.238 3.449-32.272 27.747-.954zm.354-8.275-.074.564-28.02.982-.081-.597c-.24-1.807-.454-3.634-.667-5.405-.466-4.004-.954-8.135-1.787-12.1-.827-3.906-1.994-7.665-3.236-11.644-.526-1.71-1.08-3.474-1.594-5.245l-.166-.57 20.697-8.533.307.225c9.39 6.935 16.494 27.511 14.62 42.322z"/></g><defs><clipPath id="a"><path fill="#fff" d="M.777 0h185v171h-185z"/></clipPath></defs></svg>
